X:2
T:King of Denmark. Le4.002
B:L.Leadley MS#4 c1850
Z:Village Music Project, 2016 Steve Mansfield
M:6/8
L:1/8
Q:3/8=90
N:* Last two notes speculative by transcriber
N: (missing from scan of Mss)
K:D
d2a f2e | f2g f2e | d2a f2d | e2A d3 :|
|: e2f e2d | e2f e2d | d2e f2e | g2g a3 |
d2a f2e | f2g f2e | d2a f2d | e2A d3 :|
|: ded d2e | fgf f2e | d2A dgf | edc d3 :|
|: aba a3 | ABA A3 | gag g3 | GAG G3 |
d2A d2e | fgf f2e | d2A dgf | ed"*"c d3 :|

